collections/iconoir/corner-top-right.svg

<svg stroke-width="1.5" fill="none" xmlns="http://www.w3.org/2000/svg" viewBox="0 0 24 24" width="20" height="20"><path d="M20.01 16.01l-.01-.011m.01 4.011l-.01-.011m-3.99.011l-.01-.011m-3.99.011l-.01-.011m-3.99.011L8 19.999m-3.99.011L4 19.999m.01-3.989L4 15.999m.01-3.989L4 11.999m.01-3.989L4 7.999m.01-3.989L4 3.999m4.01.011L8 3.999M20.01 12V4h-8v8h8z" stroke="currentColor" stroke-linecap="round" stroke-linejoin="round"/></svg>

<svg stroke-width="1.5" fill="none" xmlns="http://www.w3.org/2000/svg" viewBox="0 0 24 24" width="20" height="20"><path d="M20.01 16.01l-.01-.011M20.01 20.01l-.01-.011M16.01 20.01l-.01-.011M12.01 20.01l-.01-.011M8.01 20.01L8 19.999M4.01 20.01L4 19.999M4.01 16.01L4 15.999M4.01 12.01L4 11.999M4.01 8.01L4 7.999M4.01 4.01L4 3.999M8.01 4.01L8 3.999M20.01 12V4h-8v8h8z" stroke="currentColor" stroke-linecap="round" stroke-linejoin="round"/></svg>
